X:1
T:Title
%%score { 1 | 2 }
L:1/8
M:3/4
K:D
V:1 treble nm="Grand Piano"
V:2 bass 
V:1
 z2 z2[Q:1/4=86] [FA]>[EG] | G2 F2 E>D | [CA]4 [DG]>[EG] | G2 F2 FE | [CE]4 [FA]>[EG] | G2 F2 B>B | %6
 A4 ^GA | [DFB][FAd] [E^Gc]2 [DGB]2 | A4 AA | d2 A2 BB | A4 FF | A2 B2 AF | [CE]4 [CA]>[CEG] | %13
 G2 F2 Bc | [Fd]4 [^G,DF][G,DF] | [A,DF]2 [A,D]2 [G,B,E][A,CF] |[M:2/4][K:bass] [F,D]4 |] %17
V:2
 z2 z2 [D,A,]>[D,A,] | [D,B,D]2 [D,A,D]2 [D,G,C]>[D,F,] | [A,,E,]4 [B,,B,]>[C,A,] | %3
 [D,B,D]2 [D,A,D]2 [E,^G,D][E,G,D] | [A,,A,]4 [A,,A,]>[A,,A,] | [D,B,D]2 [D,A,D]2 [G,D]>[G,D] | %6
 [F,A,D]4 [E,B,D][E,CE] | E,E, E,2 E,2 | [A,CE]4 [A,CE][G,A,C] | [F,A,D]2 [F,A,D]2 [G,D][G,D] | %10
 [F,A,D]4 [D,A,D][D,A,D] | [F,A,D]2 [G,D]2 [F,A,D][D,A,D] | [A,,A,]4 [A,,A,]>A,, | %13
 [D,B,D]2 [D,A,D]2 [G,B,D][F,^A,F] | [B,,B,]4 B,,B,, | A,,2 A,,2 A,,A,, |[M:2/4] D,4 |] %17

